resources/haticons/SVG/monitor.svg

<!-- Generated by IcoMoon.io -->
<svg version="1.1" xmlns="http://www.w3.org/2000/svg" width="24" height="24" viewBox="0 0 24 24">
<title>monitor</title>
<path d="M21.040 1.221h-18.080c-1.63 0-2.96 1.326-2.96 2.96v11.467c0 1.63 1.326 2.96 2.96 2.96h8.367v2.826h-4.171c-0.374 0-0.673 0.299-0.673 0.673s0.299 0.673 0.673 0.673h9.688c0.374 0 0.673-0.299 0.673-0.673s-0.299-0.673-0.673-0.673h-4.171v-2.826h8.367c1.63 0 2.96-1.326 2.96-2.96v-11.467c0-1.635-1.326-2.96-2.96-2.96zM2.96 2.566h18.085c0.887 0 1.615 0.723 1.615 1.615v9.583h-21.314v-9.583c0-0.892 0.723-1.615 1.615-1.615zM21.040 17.262h-18.080c-0.887 0-1.615-0.723-1.615-1.615v-0.538h21.309v0.538c0 0.887-0.723 1.615-1.615 1.615z"></path>
</svg>

<svg xmlns="http://www.w3.org/2000/svg" width="24" height="24"><path d="M21.04 1.221H2.96A2.964 2.964 0 0 0 0 4.181v11.467c0 1.63 1.326 2.96 2.96 2.96h8.367v2.826H7.156c-.374 0-.673.299-.673.673s.299.673.673.673h9.688c.374 0 .673-.299.673-.673s-.299-.673-.673-.673h-4.171v-2.826h8.367c1.63 0 2.96-1.326 2.96-2.96V4.181a2.96 2.96 0 0 0-2.96-2.96zM2.96 2.566h18.085c.887 0 1.615.723 1.615 1.615v9.583H1.346V4.181c0-.892.723-1.615 1.615-1.615zm18.08 14.696H2.96a1.618 1.618 0 0 1-1.615-1.615v-.538h21.309v.538c0 .887-.723 1.615-1.615 1.615z"/></svg>
